!!!OTL@@DE: Die Schifffahrt
!!!COM: Hurka, Friedrich Franz
!!!ODT: 1799
!!!OMD: Andante
!!!LYR: Overbeck, Christian Adolf
!!!LDT: 1781
!!!OCL: Erk, Ludwig
!!!GCO: Deutscher Liederschatz, Band 1
**kern	**kern	**kern	**text	**text
*staff3	*staff2	*staff1	*	*
*Ipiano	*Ipiano	*Ivox	*	*
*clefF4	*clefF4	*clefG2	*	*
*k[b-e-]	*k[b-e-]	*k[b-e-]	*	*
*B-:	*B-:	*B-:	*	*
*met(C)	*met(C)	*met(C)	*	*
*M4/4	*M4/4	*M4/4	*	*
*MM84	*MM84	*MM84	*	*
4r	4r	4f/	Das	Wir
=1	=1	=1	=1	=1
4BB-/	8r	(8f/L	wa-	fuh-
.	(8F\L	8dd/J)	.	.
4r	8B-\ 8d\	8cc\	-ren	-ren
.	8F\J)	8b-\	mir	und
4FF/	8r	8b-/L	se-	fu-
.	(8F\L	8a/J	.	.
4r	8c\ 8e-\	8g/	-li-	-ren
.	8F\J)	8f/	-ge	auf
=2	=2	=2	=2	=2
4BB-/	8r	(4.f/	Ta-	Wel-
.	(8F\L	.	.	.
4r	8B-\ 8d\	.	.	.
.	8F\J)	8b-\)	.	.
4BBB-/	8r	4b-\	-ge!	-len,
.	8F\L	.	.	.
4r	8B-\ 8d\	8r	.	.
.	8F\J	8f/	be-	da
=3	=3	=3	=3	=3
4BB-/	8r	4dd\	-wim-	spran-
.	8F\L	.	.	.
4r	8B-\ 8d\	8cc\	-pel-	-gen
.	8F\J	8b-\	-tes	im
4FF/	8r	8b-/L	Schiff-	Was-
.	8F\L	8a/J	.	.
4r	8c\ 8e-\	8g/	-chen,	-ser
.	8F\J	8f/	o	die
=4	=4	=4	=4	=4
4BB-/	8r	(4.f/	tra-	hel-
.	8F\L	.	.	.
4r	8B-\ 8d\	.	.	.
.	8F\J	8b-\)	.	.
4BBB-/	8r	4b-\	-ge	-len,
.	8F\L	.	.	.
4r	8B-\ 8d\	4dd\	noch	die
.	8F\J	.	.	.
=5	=5	=5	=5	=5
2BB-/	8r	(8dd\L	ein-	sil-
.	8F\L	8b-\J)	.	.
.	8B-\ 8d\	8b-\	-mal	-ber-
.	8F\J	8b-\	mein	-nen
4GG/	8r	4b-\	Leib-	Fi-
.	8d\L	.	.	.
8C/L	8B-\ 8en\	8cc\	-chen	-sche
8BB-/J	8G\J	8dd\	und	her-
=6	=6	=6	=6	=6
2AA/	8r	2cc\	mich,	-auf,
.	8c\L	.	.	.
.	8A\ 8f\	.	.	.
.	8c\J	.	.	.
4FF/	8r	4r	.	.
.	8c\L	.	.	.
4AA/	8F\ 8f\	4cc\	noch	die
.	8c\J	.	.	.
=7	=7	=7	=7	=7
2C/	8r	8cc\L	ein-	sil-
.	8c\L	8a\J	.	.
.	8A\ 8f\	8f/	-mal	-ber-
.	8B-\ 8d\J	8d/	mein	-nen
2CC/	8r	4c/	Lieb-	Fi-
.	8c\L	.	.	.
.	8B-\ 8d\	8d/	-chen	-sche
.	8G\ 8en\J	8en/	und	her-
=8	=8	=8	=8	=8
2.FF/	8r	2f/	mich!	-auf;
.	(8c\L	.	.	.
.	8A\ 8f\	.	.	.
.	8c\J	.	.	.
.	4A\ 4f\)	4r	.	.
4r	4r	4cc\	O	wir
=9	=9	=9	=9	=9
4FF/	8r	(8cc/L	wieg'-	fuh-
.	(8F\L	8a/J)	.	.
4r	8c\ 8e-\	8a/	-uns	-ren
.	8F\J)	8a/	noch	und
4FF/	8r	(8a/L	ein-	fuh-
.	(8F\L	8f/J)	.	.
4r	8A\ 8e-\	8f/	-mal	-ren
.	8F\J)	8f/	be-	durch
=10	=10	=10	=10	=10
4BB-/	8r	(8f/L	-hen-	Au-
.	8F\L	8dd/J)	.	.
4r	8B-\ 8d\	4.b-\	-de	-en,
.	8F\J	.	.	.
4BB-/	8r	.	.	.
.	8F\L	8r	.	.
4r	8B-\ 8d\	4b-\	von	da
.	8F\J	.	.	.
=11	=11	=11	=11	=11
4FF/	8r	(8cc/L	hin-	lie-
.	8F\L	8a/J)	.	.
4r	8c\ 8e-\	8a/	-nen	-ssen
.	8F\J	8a/	bis	die
4FF/	8r	(8a/L	an	Bl&uuml;m-
.	8F\L	8f/J)	.	.
4r	8A\ 8e-\	8f/	der	-chen
.	8F\J	8f/	Welt	sich
=12	=12	=12	=12	=12
4BB-/	8r	(8f/L	En-	schau-
.	8F\L	8dd/J)	.	.
4r	8B-\ 8d\	4.b-\	-de;	-en,
.	8F\J	.	.	.
4BB-/	8r	.	.	.
.	8F\L	8r	.	.
4r	8B-\ 8d\	4f/	zur	da
.	8F\J	.	.	.
=13	=13	=13	=13	=13
4BBB-/ 4BB-/	8r	4b-\	Wie-	lie-
.	8F\L	.	.	.
4r	8A-\ 8B-\ 8d\	8b-\	-ge	-fen
.	8F\J	8b-\	be-	die
2BBB-/ 2BB-/	8r	4b-\	-geh-	L&auml;m-
.	8F\L	.	.	.
.	8A-\ 8B-\ 8d\	8cc\	-ren	-mer
.	8F\J	8dd\	wir	zu
=14	=14	=14	=14	=14
2.EE-/ 2.E-/	8r	[2ee-\	dich,_	Hauf,_
*	*clefG2	*	*	*
.	8e-/L	.	.	.
.	8e-/ 8g/	.	.	.
.	8g/ 8b-/J	.	.	.
.	4g\ 4b-\ 4ee-\	8ee-\L]	.	.
.	.	8dd\J	.	.
4EE-/	4g/ 4cc/	8cc\L	zur	da
*	*clefF4	*	*	*
.	.	8b-\J	.	.
=15	=15	=15	=15	=15
4FF/	8r	8b-/L	Wie-	lie-
.	8F\L	8a/J	.	.
4r	8B-\ 8d\	8g/	-ge	-fen
.	8F\J	8f/	be-	die
4FF/	8r	4f/	-geh-	L&auml;m-
.	8F\L	.	.	.
4r	8c\ 8e-\	8g/	-ren	-mer
.	8F\J	8a/	wir	zu
=16	=16	=16	=16	=16
2BB-/	8r	2b-\	dich!	Hauf.
.	8F\L	.	.	.
.	8B-\ 8d\	.	.	.
.	8F\J	.	.	.
4BBB-/	4r	4r	.	.
==	==	==	==	==
*-	*-	*-	*-	*-
!!!ENC: Craig Stuart Sapp
!!!END: 2004/05/26/
!!!EFL: 021/651
